X:320
T:the Parade
A:Wyresdale, Lancashire
B:H.S.J. Jackson, 1823
L:1/8
M:2/4
O:England
Z:Richard Robinson 
%%Dancenotes:The 1st Lady set to the 2 Gent turn the gent down the middle up again Allemande
%%TUNEURL: http://www.leeds.ac.uk/music/Info/RRTuneBk/gettune/00000e1d.html
%%ID:00000e1d
K:A
E | \
AA/B/ Ac | BB/c/ Bd | cf FB | A/G/F/G/ EG | \
A>B   Ac | B>cBd    | cfeG  | A2 A ::
c | \
dffa | ecce | FBBA | GBBd | \
ceef | egaA | FAGB | A2A ::
